packages/match-logos/mono/svg/blue-apron.svg

<svg fill="none" height="44" viewBox="0 0 96 44" width="96" xmlns="http://www.w3.org/2000/svg" xmlns:xlink="http://www.w3.org/1999/xlink"><clipPath id="a"><path d="m0 0h95.0968v44h-95.0968z"/></clipPath><g clip-path="url(#a)"><path clip-rule="evenodd" d="m94.5096 35.6541v-5.0174c0-1.3215-.2976-2.3782-.8921-3.1694-.596-.792-1.4626-1.1873-2.605-1.1873-1.1243 0-2.2572.506-3.3982 1.518-.342-.979-1.0099-1.4688-2.0054-1.4688h-1.4429l-.1703.1716v12.2127c.2765.0499.5778.0865.9052.1107.6671.05 1.3369.05 2.004 0 .3267-.0242.6279-.0608.9044-.11v-8.1758c.3275-.294.644-.506.9547-.6365.3093-.1305.5865-.1965.8317-.1965.4221 0 .708.1312.8557.3923.1463.2618.2191.6688.2191 1.2246v5.2125c0 .7993.155 1.3955.4642 1.7871.3107.3909.8885.5867 1.7369.5867.8637 0 1.6052-.2765 2.2252-.8316-.3915-.5383-.5872-1.3464-.5872-2.4229zm-16.0193-.3792c-.2292.6285-.7044.9424-1.4269.9424-.3617 0-.6527-.0814-.8747-.245-.2204-.1628-.3929-.4121-.5166-.7465s-.2059-.7494-.2474-1.2481c-.0443-.5905-.0647-1.1825-.0611-1.7746 0-.44.0255-.8529.0742-1.2357.0495-.3835.1397-.7223.2707-1.0156.1317-.2941.3085-.5266.5297-.6967.222-.1723.513-.2581.8747-.2581.6891 0 1.1482.3065 1.3774.9181.2307.6116.3464 1.5048.3464 2.6803 0 1.1586-.1165 2.0518-.3464 2.6795zm-1.3905-9.1415c-.9125 0-1.7202.1554-2.4202.4649-.6817.2952-1.2847.7482-1.7602 1.3222-.473.5712-.8317 1.2525-1.0769 2.043-.2438.792-.366 1.6771-.366 2.6554 0 .9628.1222 1.8443.366 2.6436.2452.7993.6083 1.4813 1.0886 2.0445.4822.5638 1.084 1.0112 1.7609 1.309.6927.3102 1.4953.4649 2.4078.4649.9124 0 1.7201-.1504 2.4209-.4532.7-.3007 1.2923-.7333 1.7732-1.2973.481-.5624.8478-1.2437 1.1003-2.043s.3783-1.6896.3783-2.6685c0-2.1853-.5864-3.8668-1.7601-5.0416-.9947-.9621-2.2994-1.4439-3.9126-1.4439zm-7.139.1958c-1.4182 0-2.4377.734-3.0562 2.2029-.5872-1.3714-1.6314-2.1127-3.1303-2.2279-.2292.1797-.457.4694-.6855.869-.227.4004-.3827.7627-.4642 1.089.6185.4737.9292 1.3222.9292 2.5461v7.9052c.5538.0975 1.1934.1474 1.9196.1474.7254 0 1.357-.0499 1.8955-.1467v-7.6133c.521-.8323 1.1897-1.2474 2.0054-1.2474.553.0645.9692.1467 1.2465.2442.2932-.4899.5253-1.0809.6963-1.7746.1717-.693.2569-1.2929.2569-1.7989-.652-.1312-1.1905-.1958-1.6132-.1958zm-13.4492 9.7898c-.4395 0-.9692-.1863-1.5892-.5625v-5.3847c.505-.6527 1.1009-.979 1.7857-.979.9772 0 1.4669 1.0765 1.4669 3.231 0 2.464-.5545 3.6959-1.6634 3.6959zm4.4416-8.2484c-.3638-.5544-.8077-.9819-1.3273-1.284-.5202-.3029-1.122-.4532-1.8045-.4532-1.3316 0-2.4617.4649-3.3887 1.3955-.4555-.7993-1.1497-1.1997-2.0775-1.1997h-1.0034l-.1702.1716v17.3283l.1702.1709h1.4677c.7829 0 1.328-.1709 1.6387-.5133.3092-.3425.4642-.9387.4642-1.7864v-3.2559c.748.3424 1.4946.514 2.2419.514.6985 0 1.3454-.151 1.9377-.4524.6023-.3094 1.1303-.7477 1.547-1.2841.4395-.5558.7844-1.2327 1.0362-2.0328.2518-.7993.3777-1.6881.3777-2.6678 0-.979-.0939-1.8597-.2802-2.6429-.187-.7839-.4642-1.4519-.8295-2.0078zm-16.8255 4.2474c-.2037-.0081-.3464-.0132-.4286-.0132h-1.7842l-.9787.0249.5625-1.8846c.652-2.4141 1.0434-3.9724 1.1737-4.6742h.147c.505 1.991.9532 3.6703 1.344 5.0409l.4154 1.5179c-.0967 0-.2474-.0044-.4511-.0117zm-1.2108-10.268c-.847 0-1.5892.0492-2.2252.1467l-5.3788 16.4235.1208.1958c.4905.1796 1.1257.2698 1.9086.2698.7 0 1.2465-.0498 1.6373-.1466l1.0521-3.5493c.2111.0154.5385.0242.978.0242h3.4724c.4235 0 .7414-.0088.9532-.025l.465 1.6163c.2444.8316.5384 1.394.8804 1.6881.342.2933.9372.4407 1.7849.4407.7168 0 1.3607-.1547 1.9312-.4649l-5.2805-16.4484c-.572-.1137-1.3382-.1709-2.2994-.1709zm29.571-12.61162c.2511-.36739.6345-.55072 1.1526-.55072.5341 0 .9336.19579 1.2006.58665.2664.39159.4017.88949.4017 1.49379v.2691h-3.2053c.0495-.8323.1986-1.43143.4497-1.79882zm-3.1267 7.81942c.4386.593 1.0188 1.0647 1.6867 1.3713.6934.3256 1.5535.4891 2.5802.4891 1.8905 0 3.4884-.4649 4.7924-1.3955-.1303-.946-.4628-1.6969-.9984-2.2513-.6658.2523-1.2545.4334-1.7653.5441-.5122.11-.9634.1658-1.3534.1658-.7786 0-1.3389-.2024-1.6809-.6065-.3405-.4033-.5268-.968-.5588-1.694h6.3582c.211-.6863.3165-1.526.3165-2.5211 0-.7509-.1178-1.44466-.3543-2.08118-.2215-.61179-.5672-1.17026-1.0151-1.63971-.4543-.46616-.9993-.83267-1.6008-1.07652-.628-.26106-1.3331-.39159-2.1153-.39159-.93 0-1.7413.1628-2.4326.48913-.6679.30632-1.2546.7674-1.7121 1.34564-.4483.57126-.7822 1.24518-1.0027 2.0203-.2205.77443-.3304 1.61843-.3304 2.53293 0 .9459.0895 1.8193.2693 2.6187.1797.7993.4853 1.493.9168 2.0804zm-12.9711-2.6436c0 1.3214.2969 2.3789.8921 3.1694.5945.792 1.4633 1.188 2.605 1.188 1.1395 0 2.3547-.5794 3.6426-1.738.5865 1.0934 1.5484 1.6639 2.8851 1.7138.2445-.1797.481-.462.7088-.8463.2284-.3813.3834-.737.4657-1.0633-.457-.3102-.6848-.9057-.6848-1.7871v-8.71334c-.5712-.09826-1.2151-.14666-1.9319-.14666-.7182 0-1.3461.0484-1.8831.14666v8.17434c-.5545.5551-1.101.8323-1.6372.8323-.5552 0-.898-.1298-1.0289-.3908-.131-.2611-.1943-.6776-.1943-1.2489v-5.18824c0-.79932-.155-1.39551-.4657-1.78711-.3093-.39159-.8958-.58739-1.7602-.58739-.8637 0-1.5965.26987-2.1997.80812.3907.57126.5865 1.38598.5865 2.4471zm-.6112 4.0127c.0487-.165.0742-.5192.0742-1.0619 0-.5426-.099-1.086-.294-1.6294h-.6607c-.7182 0-1.0762-.3821-1.0762-1.1476v-11.75445c0-.84625-.1543-1.44097-.4642-1.78417-.31-.341725-.8485-.513322-1.6147-.513322h-1.4902l-.1477.171597v14.563745c0 1.1748.2328 2.0357.6978 2.5813.4642.5471 1.2501.8199 2.359.8199.7662 0 1.638-.0814 2.6167-.2457zm-14.9402-7.2438h2.0178c.8593 0 1.488.2362 1.8846.7092.398.4737.5967 1.0288.5967 1.6646 0 .6695-.1543 1.1909-.4628 1.5664-.2872.3635-.6912.6145-1.1424.7098-.484.1007-.9783.1419-1.4721.1225-.4738-.017-.948-.017-1.4218 0zm0-6.73037c.2103.01613.457.0242.7415.0242h.9838c.7604 0 1.3025.18333 1.627.54999.3238.36666.4875.82865.4875 1.38377 0 .55439-.1593 1.02372-.4751 1.40725-.3151.38352-.8623.57492-1.6394.57492h-1.7246v-3.94013zm-.0975 14.21907c.994.0169 1.7929.025 2.3954.025 1.956 0 3.468-.4041 4.5369-1.2115 1.0675-.8081 1.6009-2.0518 1.6009-3.7326 0-.4737-.0779-.9335-.2314-1.383-.1517-.442-.3609-.8617-.6222-1.2482-.2591-.382-.5761-.7208-.9394-1.0039-.3468-.27506-.7393-.48609-1.1591-.62329.6338-.2772 1.1533-.72599 1.5601-1.34638.3982-.59233.6107-1.2916.6097-2.0071 0-1.48424-.5093-2.59742-1.528-3.34101-1.0187-.74212-2.4165-1.11465-4.1935-1.11465-.5705 0-1.3243.01027-2.2615.02567-.938.01613-2.0665.04033-3.3872.07333l-.171.17086v16.47337l.171.1708c1.4182.033 2.6246.058 3.6193.0734zm-18.5806-17.977345c-1.0654-.300326-2.1486-.532276-3.2431-.694455l-.4293 7.22175h-7.1194l-.4278-7.22175c-1.10606.164997-2.1859.39746-3.24172.696655-.44241 4.622855 1.0369 16.050945-7.69928 21.509745v15.094s5.30385 5.7096 14.9314 5.7096c9.6239 0 14.9285-6.077 14.9285-6.077v-14.7266c-8.7391-5.4588-7.2605-16.88836-7.6993-21.511945z" fill="#1f304c" fill-rule="evenodd"/></g></svg>

<svg width="96" height="44" viewBox="0 0 96 44" fill="none" xmlns="http://www.w3.org/2000/svg">
<g clip-path="url(#clip0)">
<path fill-rule="evenodd" clip-rule="evenodd" d="M94.5096 35.6541V30.6367C94.5096 29.3152 94.212 28.2585 93.6175 27.4673C93.0215 26.6753 92.1549 26.28 91.0125 26.28C89.8882 26.28 88.7553 26.786 87.6143 27.798C87.2723 26.819 86.6044 26.3292 85.6089 26.3292H84.166L83.9957 26.5008V38.7135C84.2722 38.7634 84.5735 38.8 84.9009 38.8242C85.568 38.8742 86.2378 38.8742 86.9049 38.8242C87.2316 38.8 87.5328 38.7634 87.8093 38.7142V30.5384C88.1368 30.2444 88.4533 30.0324 88.764 29.9019C89.0733 29.7714 89.3505 29.7054 89.5957 29.7054C90.0178 29.7054 90.3037 29.8366 90.4514 30.0977C90.5977 30.3595 90.6705 30.7665 90.6705 31.3223V36.5348C90.6705 37.3341 90.8255 37.9303 91.1347 38.3219C91.4454 38.7128 92.0232 38.9086 92.8716 38.9086C93.7353 38.9086 94.4768 38.6321 95.0968 38.077C94.7053 37.5387 94.5096 36.7306 94.5096 35.6541ZM78.4903 35.2749C78.2611 35.9034 77.7859 36.2173 77.0634 36.2173C76.7017 36.2173 76.4107 36.1359 76.1887 35.9723C75.9683 35.8095 75.7958 35.5602 75.6721 35.2258C75.5484 34.8914 75.4662 34.4764 75.4247 33.9777C75.3804 33.3872 75.36 32.7952 75.3636 32.2031C75.3636 31.7631 75.3891 31.3502 75.4378 30.9674C75.4873 30.5839 75.5775 30.2451 75.7085 29.9518C75.8402 29.6577 76.017 29.4252 76.2382 29.2551C76.4602 29.0828 76.7512 28.997 77.1129 28.997C77.802 28.997 78.2611 29.3035 78.4903 29.9151C78.721 30.5267 78.8367 31.4199 78.8367 32.5954C78.8367 33.754 78.7202 34.6472 78.4903 35.2749ZM77.0998 26.1334C76.1873 26.1334 75.3796 26.2888 74.6796 26.5983C73.9979 26.8935 73.3949 27.3465 72.9194 27.9205C72.4464 28.4917 72.0877 29.173 71.8425 29.9635C71.5987 30.7555 71.4765 31.6406 71.4765 32.6189C71.4765 33.5817 71.5987 34.4632 71.8425 35.2625C72.0877 36.0618 72.4508 36.7438 72.9311 37.307C73.4133 37.8708 74.0151 38.3182 74.692 38.616C75.3847 38.9262 76.1873 39.0809 77.0998 39.0809C78.0122 39.0809 78.8199 38.9305 79.5207 38.6277C80.2207 38.327 80.813 37.8944 81.2939 37.3304C81.7749 36.768 82.1417 36.0867 82.3942 35.2874C82.6467 34.4881 82.7725 33.5978 82.7725 32.6189C82.7725 30.4336 82.1861 28.7521 81.0124 27.5773C80.0177 26.6152 78.713 26.1334 77.0998 26.1334ZM69.9608 26.3292C68.5426 26.3292 67.5231 27.0632 66.9046 28.5321C66.3174 27.1607 65.2732 26.4194 63.7743 26.3042C63.5451 26.4839 63.3173 26.7736 63.0888 27.1732C62.8618 27.5736 62.7061 27.9359 62.6246 28.2622C63.2431 28.7359 63.5538 29.5844 63.5538 30.8083V38.7135C64.1076 38.811 64.7472 38.8609 65.4734 38.8609C66.1988 38.8609 66.8304 38.811 67.3689 38.7142V31.1009C67.8899 30.2686 68.5586 29.8535 69.3743 29.8535C69.9273 29.918 70.3435 30.0002 70.6208 30.0977C70.914 29.6078 71.1461 29.0168 71.3171 28.3231C71.4888 27.6301 71.574 27.0302 71.574 26.5242C70.922 26.393 70.3835 26.3284 69.9608 26.3284V26.3292ZM56.5116 36.119C56.0721 36.119 55.5424 35.9327 54.9224 35.5565V30.1718C55.4274 29.5191 56.0233 29.1928 56.7081 29.1928C57.6853 29.1928 58.175 30.2693 58.175 32.4238C58.175 34.8878 57.6205 36.1197 56.5116 36.1197V36.119ZM60.9532 27.8706C60.5894 27.3162 60.1455 26.8887 59.6259 26.5866C59.1057 26.2837 58.5039 26.1334 57.8214 26.1334C56.4898 26.1334 55.3597 26.5983 54.4327 27.5289C53.9772 26.7296 53.283 26.3292 52.3552 26.3292H51.3518L51.1816 26.5008V43.8291L51.3518 44H52.8195C53.6024 44 54.1475 43.8291 54.4582 43.4867C54.7674 43.1442 54.9224 42.548 54.9224 41.7003V38.4444C55.6704 38.7868 56.417 38.9584 57.1643 38.9584C57.8628 38.9584 58.5097 38.8074 59.102 38.506C59.7043 38.1966 60.2323 37.7583 60.649 37.2219C61.0885 36.6661 61.4334 35.9892 61.6852 35.1891C61.937 34.3898 62.0629 33.501 62.0629 32.5213C62.0629 31.5423 61.969 30.6616 61.7827 29.8784C61.5957 29.0945 61.3185 28.4265 60.9532 27.8706ZM44.1277 32.118C43.924 32.1099 43.7813 32.1048 43.6991 32.1048H41.9149L40.9362 32.1297L41.4987 30.2451C42.1507 27.831 42.5421 26.2727 42.6724 25.5709H42.8194C43.3244 27.5619 43.7726 29.2412 44.1634 30.6118L44.5788 32.1297C44.4821 32.1297 44.3314 32.1253 44.1277 32.118ZM42.9169 21.85C42.0699 21.85 41.3277 21.8992 40.6917 21.9967L35.3129 38.4202L35.4337 38.616C35.9242 38.7956 36.5594 38.8858 37.3423 38.8858C38.0423 38.8858 38.5888 38.836 38.9796 38.7392L40.0317 35.1899C40.2428 35.2053 40.5702 35.2141 41.0097 35.2141H44.4821C44.9056 35.2141 45.2235 35.2053 45.4353 35.1891L45.9003 36.8054C46.1447 37.637 46.4387 38.1994 46.7807 38.4935C47.1227 38.7868 47.7179 38.9342 48.5656 38.9342C49.2824 38.9342 49.9263 38.7795 50.4968 38.4693L45.2163 22.0209C44.6443 21.9072 43.8781 21.85 42.9169 21.85ZM72.4879 9.23838C72.739 8.87099 73.1224 8.68766 73.6405 8.68766C74.1746 8.68766 74.5741 8.88345 74.8411 9.27431C75.1075 9.6659 75.2428 10.1638 75.2428 10.7681V11.0372H72.0375C72.087 10.2049 72.2361 9.60577 72.4872 9.23838H72.4879ZM69.3612 17.0578C69.7998 17.6508 70.38 18.1225 71.0479 18.4291C71.7413 18.7547 72.6014 18.9182 73.6281 18.9182C75.5186 18.9182 77.1165 18.4533 78.4205 17.5227C78.2902 16.5767 77.9577 15.8258 77.4221 15.2714C76.7563 15.5237 76.1676 15.7048 75.6568 15.8155C75.1446 15.9255 74.6934 15.9813 74.3034 15.9813C73.5248 15.9813 72.9645 15.7789 72.6225 15.3748C72.282 14.9715 72.0957 14.4068 72.0637 13.6808H78.4219C78.6329 12.9945 78.7384 12.1548 78.7384 11.1597C78.7384 10.4088 78.6206 9.71504 78.3841 9.07852C78.1626 8.46673 77.8169 7.90826 77.369 7.43881C76.9147 6.97265 76.3697 6.60614 75.7682 6.36229C75.1402 6.10123 74.4351 5.9707 73.6529 5.9707C72.7229 5.9707 71.9116 6.1335 71.2203 6.45983C70.5524 6.76615 69.9657 7.22723 69.5082 7.80547C69.0599 8.37673 68.726 9.05065 68.5055 9.82577C68.285 10.6002 68.1751 11.4442 68.1751 12.3587C68.1751 13.3046 68.2646 14.178 68.4444 14.9774C68.6241 15.7767 68.9297 16.4704 69.3612 17.0578ZM56.3901 14.4142C56.3901 15.7356 56.687 16.7931 57.2822 17.5836C57.8767 18.3756 58.7455 18.7716 59.8872 18.7716C61.0267 18.7716 62.2419 18.1922 63.5298 17.0336C64.1163 18.127 65.0782 18.6975 66.4149 18.7474C66.6594 18.5677 66.8959 18.2854 67.1237 17.9011C67.3521 17.5198 67.5071 17.1641 67.5894 16.8378C67.1324 16.5276 66.9046 15.9321 66.9046 15.0507V6.33736C66.3334 6.2391 65.6895 6.1907 64.9727 6.1907C64.2545 6.1907 63.6266 6.2391 63.0896 6.33736V14.5117C62.5351 15.0668 61.9886 15.344 61.4524 15.344C60.8972 15.344 60.5544 15.2142 60.4235 14.9532C60.2925 14.6921 60.2292 14.2756 60.2292 13.7043V8.51606C60.2292 7.71674 60.0742 7.12055 59.7635 6.72895C59.4542 6.33736 58.8677 6.14156 58.0033 6.14156C57.1396 6.14156 56.4068 6.41143 55.8036 6.94968C56.1943 7.52094 56.3901 8.33566 56.3901 9.39678V14.4142ZM55.7789 18.4269C55.8276 18.2619 55.8531 17.9077 55.8531 17.365C55.8531 16.8224 55.7541 16.279 55.5591 15.7356H54.8984C54.1802 15.7356 53.8222 15.3535 53.8222 14.588V2.83355C53.8222 1.9873 53.6679 1.39258 53.358 1.04938C53.048 0.707655 52.5095 0.536058 51.7433 0.536058H50.2531L50.1054 0.707655V15.2714C50.1054 16.4462 50.3382 17.3071 50.8032 17.8527C51.2674 18.3998 52.0533 18.6726 53.1622 18.6726C53.9284 18.6726 54.8002 18.5912 55.7789 18.4269ZM40.8387 11.1831H42.8565C43.7158 11.1831 44.3445 11.4193 44.7411 11.8923C45.1391 12.366 45.3378 12.9211 45.3378 13.5569C45.3378 14.2264 45.1835 14.7478 44.875 15.1233C44.5878 15.4868 44.1838 15.7378 43.7326 15.8331C43.2486 15.9338 42.7543 15.975 42.2605 15.9556C41.7867 15.9386 41.3125 15.9386 40.8387 15.9556V11.1831ZM40.8387 4.45273C41.049 4.46886 41.2957 4.47693 41.5802 4.47693H42.564C43.3244 4.47693 43.8665 4.66026 44.191 5.02692C44.5148 5.39358 44.6785 5.85557 44.6785 6.41069C44.6785 6.96508 44.5192 7.43441 44.2034 7.81794C43.8883 8.20146 43.3411 8.39286 42.564 8.39286H40.8394V4.45273H40.8387ZM40.7412 18.6718C41.7352 18.6887 42.5341 18.6968 43.1366 18.6968C45.0926 18.6968 46.6046 18.2927 47.6735 17.4853C48.741 16.6772 49.2744 15.4335 49.2744 13.7527C49.2744 13.279 49.1965 12.8192 49.043 12.3697C48.8913 11.9277 48.6821 11.508 48.4208 11.1215C48.1617 10.7395 47.8447 10.4007 47.4814 10.1176C47.1346 9.84254 46.7421 9.63151 46.3223 9.49431C46.9561 9.21711 47.4756 8.76832 47.8824 8.14793C48.2806 7.5556 48.4931 6.85633 48.4921 6.14083C48.4921 4.65659 47.9828 3.54341 46.9641 2.79982C45.9454 2.0577 44.5476 1.68517 42.7706 1.68517C42.2001 1.68517 41.4463 1.69544 40.5091 1.71084C39.5711 1.72697 38.4426 1.75117 37.1219 1.78417L36.9509 1.95503V18.4284L37.1219 18.5992C38.5401 18.6322 39.7465 18.6572 40.7412 18.6726V18.6718ZM22.1606 0.694455C21.0952 0.394129 20.012 0.162179 18.9175 0L18.4882 7.22175H11.3688L10.941 0C9.83494 0.164997 8.7551 0.39746 7.69928 0.696655C7.25687 5.31951 8.73618 16.7476 0 22.2064V37.3004C0 37.3004 5.30385 43.01 14.9314 43.01C24.5553 43.01 29.8599 36.933 29.8599 36.933V22.2064C21.1208 16.7476 22.5994 5.31804 22.1606 0.694455Z" fill="#1F304C"/>
</g>
<defs>
<clipPath id="clip0">
<rect width="95.0968" height="44" fill="white"/>
</clipPath>
</defs>
</svg>
